X:1
T:053 - Os Filhos de Sião
T:Letra: Isaac Watts (1674-1748)
T:Estribilho de Robert Lowry (1826-1899)
T:Trad.: William Edwin Entzminger (1859-1930)
T:Música: Robert Lowry (1826-1899)
M:6/8
L:1/8
K:G
V:1
G | "G"B3 G3 | "D7"DEF "G"G2 "(D)"A | "G"B2 G dcB | "D"A3- A2 A | "G"B2B c2B | "C"A2 G E2"(G)"G | "D"A2A B2A | "G"G2E "D"D2D | "G"G3 "D"A3 | "G"B2d "C"c2"(Am)"A | "G/D"G2G "D7"A2F | "G"G3- G2 || B | "G"d3 B2B | B3 G2 z | B>AG d>cB | "D"A3 d2c | "G"B2B Bcd | "C"e3 ed"(Am)"c | "G/D"B>BB "D7"A>AA | "G"G3- G2|]
w: 1.~Ó fi-lhos de_ Si-ão, Hon-rai o Rei_ dos reis;_ Lou-vo-res al-tos Lhe can-tai,  Lou-vo-res al-tos Lhe can-tai, Guar-dai as san-tas leis.  Guar-dai as san-tas leis_ Si-ão é a nos-sa san-tae glo-rio-sa ci-da-de,    Tam-bém pe-re-ne mo-ra-da_  Dos cren-tes em nos-so Je-sus._
w: 2.~Os que do mun_do são A Deus não dão_ lou-vor;_ Mas, fi-lhos do ce-les-te Rei,  Mas, fi-lhos do ce-les-te Rei, Lou-vai ao Sal-va-dor!  Lou-vai ao Sal-va-dor!_
w: 3.~Dos mon-tes de_Si-ão Pro-vêm de-lí_cias tais,_ Que de pra-zer nos en-chem mais Que de pra-zer nos en-chem mais Que go-zos ter-re-ais. Que go-zos ter-re-ais._
w: 4.~Oh, ve-nham-nO_ lou-var Os que seus fi_lhos são,_ E seer-gam já a de-man-dar E seer-gam já a de-man-dar Às pla-gas de Si-ão! Às pla-gas de Si-ão!_
W: 
W:
W: 1. Ó filhos de Sião,
W: Honrai o Rei dos reis;
W: Louvores altos Lhe cantai,  (bis)
W: Guardai as santas leis.  (bis)
W:
W:    (Estribilho)
W:    Sião é a nossa santa e gloriosa cidade,
W:    Também perene morada
W:    Dos crentes em nosso Jesus.
W:    
W: 2. Os que do mundo são
W: A Deus não dão louvor;
W: Mas, filhos do celeste Rei,  (bis)
W: Louvai ao Salvador!  (bis)
W: 
W: 
W: 
W: 3. Dos montes de Sião
W: Provêm delícias tais,
W: Que de prazer nos enchem mais  (bis)
W: Que gozos terreais.  (bis)
W: 
W: 4. Oh, venham-nO louvar
W: Os que seus filhos são,
W: E se ergam já a demandar (bis)
W: Às plagas de Sião!  (bis)
W:         
W: 





%wordsfont Times-Roman 13.0
%vocalfont Times-Roman 13.0
